X: 10683
T: Down The Hill
R: jig
M: 6/8
K: Gdorian
G/F/|DGG G2A|B/A/G/A/B/G/ A/G/F/G/A/F/|G/F/D/C/D/E/ F2G|
A{dc}BG FDC|DGG G2B|A/G/F/G/A/B/ cAc|d/e/fd cAd|~G3 G2:|
|:B/c/|dgg g2a|b/a/g/a/b/g/ afd|cff f2g|a/g/f/g/a/f/ gfd|
dgg g2a|b/a/g/a/b/g/ a/g/f/g/a/f/|gfd cAd|~G3 G2:|
|:=B/d/|gd=B G>Bd/B/|G>=Bd/B/ c_BA|fcA F>Ac/A/|F/G/AB cBA|
B/A/G/A/B/G/ c/B/A/B/c/A/|dg^f gab|gfd cAd|~G3 G2:|

